src/images/v2/nav.svg

<svg fill="none" height="40" viewBox="0 0 40 40" width="40" xmlns="http://www.w3.org/2000/svg"><circle cx="20" cy="20" fill="#fff" r="19.5" stroke="#f9f9f9"/><path d="m12.222 26.1668c-.3376 0-.6112-.2736-.6112-.6111s.2736-.6111.6112-.6111h15.5555c.3375 0 .6111.2736.6111.6111s-.2736.6111-.6111.6111zm0-4.4445c-.3376 0-.6112-.2736-.6112-.6111s.2736-.6111.6112-.6111h15.5555c.3375 0 .6111.2736.6111.6111s-.2736.6111-.6111.6111zm-.6112-5.0555c0-.3375.2736-.6111.6112-.6111h15.5555c.3375 0 .6111.2736.6111.6111s-.2736.6111-.6111.6111h-15.5555c-.3376 0-.6112-.2736-.6112-.6111z" fill="#4fc4f9" stroke="#4fc4f9"/></svg>

<svg width="40" height="40" viewBox="0 0 40 40" fill="none" xmlns="http://www.w3.org/2000/svg">
<circle cx="20" cy="20" r="19.5" fill="white" stroke="#F9F9F9"/>
<path d="M12.222 26.1668C11.8844 26.1668 11.6108 25.8932 11.6108 25.5557C11.6108 25.2182 11.8844 24.9446 12.222 24.9446H27.7775C28.115 24.9446 28.3886 25.2182 28.3886 25.5557C28.3886 25.8932 28.115 26.1668 27.7775 26.1668H12.222ZM12.222 21.7223C11.8844 21.7223 11.6108 21.4487 11.6108 21.1112C11.6108 20.7737 11.8844 20.5001 12.222 20.5001H27.7775C28.115 20.5001 28.3886 20.7737 28.3886 21.1112C28.3886 21.4487 28.115 21.7223 27.7775 21.7223H12.222ZM11.6108 16.6668C11.6108 16.3293 11.8844 16.0557 12.222 16.0557H27.7775C28.115 16.0557 28.3886 16.3293 28.3886 16.6668C28.3886 17.0043 28.115 17.2779 27.7775 17.2779H12.222C11.8844 17.2779 11.6108 17.0043 11.6108 16.6668Z" fill="#4FC4F9" stroke="#4FC4F9"/>
</svg>
